X:229
T:Pulling Bracken
R:polka
H:Also in Edor, #14
Z:id:hn-strathspey-15
M:C|
L:1/8
K:Ador
A2 a2 g<e g2 | e>d B>A G>A B<G |
A2 a2 g<e g2 | e>d B<G A2 A2 :|
|: e>d B>A G>A B<d | e>d B<A d2 d2 |
e>d B>A G>A B<d | e>d B<G A2 A2 :|

